www/assets/icons/directions_run.svg

<svg width="24" height="24" viewBox="0 0 24 24" xmlns="http://www.w3.org/2000/svg" fill='currentColor'><path d="M14.55 5.25C15.65 5.25 16.55 4.35 16.55 3.25C16.55 2.15 15.65 1.25 14.55 1.25C13.45 1.25 12.55 2.15 12.55 3.25C12.55 4.35 13.45 5.25 14.55 5.25ZM10.95 19.15L11.95 14.75L14.05 16.75V22.75H16.05V15.25L13.95 13.25L14.55 10.25C15.85 11.75 17.85 12.75 20.05 12.75V10.75C18.15 10.75 16.55 9.75 15.75 8.35L14.75 6.75C14.35 6.15 13.75 5.75 13.05 5.75C12.75 5.75 12.55 5.85 12.25 5.85L7.05001 8.05V12.75H9.05001V9.35L10.85 8.65L9.25001 16.75L4.35001 15.75L3.95001 17.75L10.95 19.15Z"/></svg>

<svg xmlns="http://www.w3.org/2000/svg" width="24" height="24" viewBox="0 0 24 24" fill='currentColor'><path d="M14.55 5.25c1.1 0 2-.9 2-2s-.9-2-2-2-2 .9-2 2 .9 2 2 2m-3.6 13.9 1-4.4 2.1 2v6h2v-7.5l-2.1-2 .6-3c1.3 1.5 3.3 2.5 5.5 2.5v-2c-1.9 0-3.5-1-4.3-2.4l-1-1.6c-.4-.6-1-1-1.7-1-.3 0-.5.1-.8.1l-5.2 2.2v4.7h2v-3.4l1.8-.7-1.6 8.1-4.9-1-.4 2z"/></svg>
